!!!OTL: Turkish Rover
!!!ONM: 13.
**kern
*clefG2
*k[]
*C:
*M3/4
*MM80
{8c
=1
8e
8f
4g
8g
8d
=2
8c
8B
4.c}
{8c
=3
8e
8g
4.cc
8cc
=4
8b
8b
4g}
{(8.e
16d)
=5
8c
8c
4cc
8dd
8b
=6
8a
8a
4.g}
{8e
=7
8g
8g
4g
8e
8d
=8
8c
8B
4c
8r}
==
*-
!!!CNT: Folksongs of Maritime Canada
!!!MRD: 1928///-1932///
!!!OCL: Helen Creighton
!!!YOR: Songs and Ballads from Nova Scotia
!!!PPR: J.M. Dent & Sons, Limited
!!!PPP: Toronto, Canada
!!!PDT: 1932///
!!!reprint: Dover Publications, 1992: ISBN 0-486-21703-5
!!!ENC1: Craig Stuart Sapp (music and bibliographic data)                       
!!!ENC2: Marcus Pearce (phrase markings and key designations)                   
!!!ENC3: Darrell Conklin (phrase markings and key designations)   
!!!END: 2002/04/10/
!!!EEV: 2004/06/05
!!!MPN: Mr. Ben Henneberry
!!!PPG: 26
!!!EFL: 13/152
!!!ARE: Canada; Nova Scotia
!!!verses: 12
!!!VTS: 3319484439
